X:44
T:Mr. Saunders
A:Arnold Schoenberg
M:4/4
K:C
| BG ^F2 E2 z2 |  d2 ^c2 ^d2 e2 | =de  f2 =c2 B2 |
w: Mis-ter Saun-ders:  I owe you thanks for at least four years.
| ^AB c2 B2 z2 | ^A=A  G2  F2 z2 | F^F  G3 E  D2 | G^G A=G DE ^F2 |
w: Let me do it in four voi-ces So that e-v'ry one of them co-unts for one year.
| B3 c BA  (^G2|G)A e^d=dc  | ^AB3 ^DE^FG |
w: Mer-ry Christ-mas four * times, lis-ten how they  sing it.  Al-so Mer-ry
^AB3 z G | ^F2 E2 C2 B,4
w: Christ-mas to Mis-sus Saun-ders.
